input mpost/def;
beginchar(65,3);
	x1 := 2 * ux;
	y1 := 2 * uy;
	x2 := 1 * ux;
	y2 := 2 * uy;
pickup pencircle xscaled (strokeX/6) yscaled (strokeY/10);
draw z1--z2;
	x8 := 0 * ux;
	y8 := -4 * uy;
	x16 := 2 * ux;
	y16 := -2 * uy;
draw z8--z16;
	x6 := 2 * ux;
	y6 := 8 * uy;
	x12 := 1 * ux;
	y12 := -1 * uy;
	x18 := 2 * ux;
	y18 := 2 * uy;
pickup pencircle xscaled (strokeX/3) yscaled (strokeY/7);
draw z6--z12..z18;
endchar(3);
end.